X: 927
T: Stay All Night
B: jims roots
M:2/4
L:1/16
Q: 1/4=100
K:A
V:1 
|: "A"ccB2 A2AB | cdcB A2A2 | "E"B2BB B2cB | "A"ABAF E3(E |
E2)FF A2AB | cBcd e4 | "D"f2ee "E"c2cB | "A"A4A4 : |
|: "A"a2aa a2aa | fec2 e2(B2 | c2)cB cBA2 | fecd "E"e2e2 |
"A"a2aa a2aa | fec e2e2 | f2e2 "E"c2Bc | "A"A4A4 :|
% abcbook-tune_id 6298c287befa52c35eefb617


% abcbook-boost 0
% abcbook-tablature 
% abcbook-transpose 
% abcbook-lastupdated 1654178440872
% abcbook-soundfonts 
% abcbook-repeats 1


